X: 19263
T: Ivory Bowl, The
R: jig
M: 6/8
K: Gmajor
|:f2e|d2B BAB|dBd ege|dBB BAB|~G3 G2B|
d2B BAB|ded def|gbg f/g/af|e3:|
|:e2d|g2d gab|aba g2a|gfe fed|e2d B2d|
g2d gab|aba g2f|fed BAB|e3:|

